X: 9259
T: Dan Sullivan's Shamrock Swing Band
R: polka
M: 2/4
K: Amixolydian
|:A>B cd|ed ea|ge de/d/|cA GE|
A>B cd|ed ea|ge de/d/|cA A2:|
|:a2 ge|dB gb|aA AB/c/|dA GE|
A>B cd|ed ea|ge de/d/|cA A2:|

